app/img/icons/home-hands.svg

<svg width="83" height="71" viewBox="0 0 83 71" fill="none" xmlns="http://www.w3.org/2000/svg">
<path d="M5.90015 16.7523L8.49999 16.2392C8.84493 16.1657 9.20114 16.1626 9.54732 16.2299C9.8935 16.2973 10.2226 16.4338 10.5148 16.6313C10.807 16.8288 11.0563 17.0831 11.248 17.3792C11.4396 17.6753 11.5696 18.0069 11.6301 18.3544C12.2401 21.7752 13.6313 29.9283 14.1843 33.0697L16.1456 35.5841" stroke="#344154" stroke-miterlimit="10" stroke-linecap="round"/>
<path d="M11.5504 17.596L12.9529 17.3167C13.2986 17.2432 13.6556 17.2402 14.0025 17.3079C14.3493 17.3756 14.679 17.5125 14.9717 17.7105C15.2644 17.9085 15.5142 18.1635 15.7062 18.4602C15.8981 18.757 16.0282 19.0894 16.0887 19.4376C16.847 23.7365 17.4172 27.7046 18.0728 31.1939L20.017 33.9306" stroke="#344154" stroke-miterlimit="10" stroke-linecap="round"/>
<path d="M16.7557 20.7205L17.8675 20.5038C18.2124 20.4304 18.5686 20.4272 18.9148 20.4946C19.261 20.562 19.59 20.6985 19.8823 20.8959C20.1745 21.0934 20.4239 21.3478 20.6155 21.6438C20.8071 21.9399 20.9371 22.2716 20.9976 22.619C21.7616 26.9179 22.919 32.9956 22.919 32.9956" stroke="#344154" stroke-miterlimit="10" stroke-linecap="round"/>
<path d="M27.9535 45.7553C26.0912 44.1012 23.7948 43.0142 21.3351 42.6222C18.8753 42.2303 16.3548 42.5498 14.0706 43.5431C13.6634 43.7412 13.2349 43.8923 12.7935 43.9935C9.68622 44.6093 9.09897 41.9923 8.18674 40.0025C7.37144 38.2351 5.6496 36.8497 3.71682 35.9203C3.38416 35.7534 3.0094 35.6893 2.64018 35.736C2.27096 35.7828 1.92399 35.9383 1.64341 36.1828C1.36283 36.4273 1.16132 36.7498 1.06453 37.1091C0.967749 37.4685 0.980065 37.8485 1.09989 38.2009C2.08358 41.1103 3.27442 43.9454 4.66327 46.6846C5.35335 48.2383 6.31917 49.6543 7.51398 50.8637C9.96558 53.093 13.4834 53.5491 16.7218 54.2333C19.9602 54.9174 23.4893 56.2344 24.8691 59.2448V69.0341" stroke="#344154" stroke-miterlimit="10" stroke-linecap="round"/>
<path d="M22.1381 35.7891C26.2602 36.7754 31.2603 37.3798 34.5386 42.5965C36.1986 45.2646 37.2318 48.2744 37.5604 51.3995V69.5414" stroke="#344154" stroke-miterlimit="10" stroke-linecap="round"/>
<path d="M3.92212 35.7896L1.69855 18.7993C1.6386 18.1728 1.81372 17.5462 2.18987 17.0415C2.56603 16.5368 3.11636 16.19 3.73396 16.0684V16.0684C4.0393 16.0069 4.35393 16.0078 4.65891 16.0711C4.96388 16.1344 5.25288 16.2588 5.50855 16.4367C5.76422 16.6146 5.98125 16.8423 6.14658 17.1063C6.31192 17.3703 6.42215 17.665 6.47063 17.9726L9.1788 34.6493L11.5506 37.4658" stroke="#344154" stroke-miterlimit="10" stroke-linecap="round"/>
<path d="M77.0822 16.7523L74.4824 16.2392C74.1375 16.1657 73.7812 16.1626 73.4351 16.2299C73.0889 16.2973 72.7598 16.4338 72.4676 16.6313C72.1754 16.8288 71.926 17.0831 71.7344 17.3792C71.5428 17.6753 71.4128 18.0069 71.3523 18.3544C70.7422 21.7752 69.3511 29.9283 68.7981 33.0697L66.8368 35.5841" stroke="#344154" stroke-miterlimit="10" stroke-linecap="round"/>
<path d="M71.4322 17.596L70.0296 17.3167C69.6839 17.2432 69.327 17.2402 68.9801 17.3079C68.6332 17.3756 68.3036 17.5125 68.0109 17.7105C67.7181 17.9085 67.4683 18.1635 67.2764 18.4602C67.0845 18.757 66.9544 19.0894 66.8939 19.4376C66.1356 23.7365 65.5654 27.7046 64.9097 31.1939L62.9656 33.9306" stroke="#344154" stroke-miterlimit="10" stroke-linecap="round"/>
<path d="M66.2269 20.7205L65.0866 20.5038C64.7417 20.4304 64.3854 20.4272 64.0393 20.4946C63.6931 20.562 63.3641 20.6985 63.0719 20.8959C62.7797 21.0934 62.5303 21.3478 62.3386 21.6438C62.147 21.9399 62.017 22.2716 61.9565 22.619C61.1925 26.9179 60.0352 32.9956 60.0352 32.9956" stroke="#344154" stroke-miterlimit="10" stroke-linecap="round"/>
<path d="M55.0465 45.7553C56.9088 44.1012 59.2052 43.0142 61.665 42.6222C64.1248 42.2303 66.6453 42.5498 68.9294 43.5431C69.3367 43.7412 69.7652 43.8923 70.2066 43.9935C73.3138 44.6093 73.9011 41.9923 74.8133 40.0025C75.6286 38.2351 77.3504 36.8497 79.2832 35.9203C79.6159 35.7534 79.9907 35.6893 80.3599 35.736C80.7291 35.7828 81.076 35.9383 81.3566 36.1828C81.6372 36.4273 81.8387 36.7498 81.9355 37.1091C82.0323 37.4685 82.02 37.8485 81.9001 38.2009C80.9165 41.1103 79.7256 43.9454 78.3368 46.6846C77.6467 48.2383 76.6809 49.6543 75.4861 50.8637C73.0344 53.093 69.5167 53.5491 66.2783 54.2333C63.0399 54.9174 59.5107 56.2344 58.131 59.2448V69.0341" stroke="#344154" stroke-miterlimit="10" stroke-linecap="round"/>
<path d="M60.8449 35.7891C56.7228 36.7754 51.7227 37.3798 48.4443 42.5965C46.7843 45.2646 45.7512 48.2744 45.4226 51.3995V69.5414" stroke="#344154" stroke-miterlimit="10" stroke-linecap="round"/>
<path d="M79.061 35.7894L81.2845 18.7992C81.3501 18.1673 81.1762 17.5338 80.7972 17.0239C80.4182 16.514 79.8617 16.1648 79.2377 16.0454V16.0454C78.9324 15.9839 78.6178 15.9849 78.3128 16.0482C78.0078 16.1115 77.7188 16.2358 77.4631 16.4137C77.2075 16.5916 76.9904 16.8194 76.8251 17.0834C76.6598 17.3473 76.5495 17.642 76.5011 17.9497L73.8043 34.6491L71.4325 37.4656" stroke="#344154" stroke-miterlimit="10" stroke-linecap="round"/>
<path d="M53.9149 28.9998L46.7648 28.9989C46.212 28.9982 45.6821 28.7766 45.2913 28.3827C44.9004 27.9888 44.6806 27.4547 44.68 26.8977V19.6931C44.6799 19.6135 44.6485 19.5372 44.5926 19.4809C44.5368 19.4246 44.4611 19.393 44.3821 19.3929H39.6161C39.5372 19.393 39.4614 19.4246 39.4056 19.4809C39.3497 19.5372 39.3183 19.6135 39.3183 19.6931V26.8975C39.3176 27.4546 39.0978 27.9886 38.707 28.3825C38.3161 28.7765 37.7862 28.9981 37.2334 28.9988L30.0854 29C29.8116 29 29.5404 28.9457 29.2874 28.8401C29.0344 28.7346 28.8045 28.5798 28.6108 28.3847C28.4172 28.1895 28.2636 27.9579 28.1587 27.7029C28.0539 27.448 28 27.1747 28 26.8987V13.0212C28.0002 12.7284 28.061 12.439 28.1785 12.1712C28.296 11.9035 28.4676 11.6634 28.6824 11.4663L40.5964 0.54946C40.9794 0.196034 41.4807 0 42 0C42.5193 0 43.0188 0.196034 43.4018 0.54946L55.3176 11.4664C55.5323 11.6635 55.7039 11.9036 55.8214 12.1713C55.9389 12.439 55.9997 12.7285 56 13.0212V26.8987C56 27.456 55.7803 27.9905 55.3893 28.3845C54.9983 28.7786 54.4679 28.9998 53.9149 28.9998ZM39.6161 18.1922H44.3821C44.9349 18.1928 45.0181 18.2643 45.409 18.6582C45.7999 19.0522 45.7219 19.136 45.7225 19.6931L45.8714 27.4979C45.8716 27.5775 45.903 27.6537 45.9588 27.71C46.0147 27.7663 46.0904 27.7979 46.1693 27.7981L54.5106 27.7993C54.5896 27.7993 54.6654 27.7676 54.7213 27.7113C54.7771 27.655 54.8085 27.5787 54.8085 27.4991V12.5709C54.8085 12.5291 54.7997 12.4878 54.7829 12.4495C54.7662 12.4113 54.7416 12.377 54.711 12.3488L42.1996 0.831333C42.1448 0.780855 42.0733 0.752859 41.9991 0.752859C41.9249 0.752859 41.8534 0.780855 41.7986 0.831333L29.14 12.4989C29.1093 12.5271 29.0848 12.5614 29.068 12.5996C29.0512 12.6379 29.0426 12.6792 29.0426 12.721L29.1915 27.4991C29.1915 27.5787 29.2229 27.655 29.2787 27.7113C29.3346 27.7676 29.4104 27.7993 29.4894 27.7993L37.9778 27.7984C38.0568 27.7982 38.1325 27.7666 38.1883 27.7103C38.2442 27.654 38.2756 27.5778 38.2757 27.4982V19.6932C38.2763 19.1361 38.1983 19.0523 38.5892 18.6584C38.9801 18.2645 39.0633 18.1928 39.6161 18.1922Z" fill="#D60000"/>
</svg>

<svg width="83" height="71" fill="none" xmlns="http://www.w3.org/2000/svg"><path d="M5.9 16.752l2.6-.513a2.623 2.623 0 013.13 2.115c.61 3.421 2.001 11.574 2.554 14.716l1.962 2.514M11.55 17.596l1.403-.28a2.627 2.627 0 013.136 2.122c.758 4.299 1.328 8.267 1.984 11.756l1.944 2.737M16.756 20.72l1.111-.216a2.623 2.623 0 013.13 2.115c.765 4.299 1.922 10.377 1.922 10.377m5.034 12.759a13.062 13.062 0 00-13.882-2.212 5.93 5.93 0 01-1.277.45c-3.108.616-3.695-2-4.607-3.99-.816-1.768-2.537-3.153-4.47-4.083A1.876 1.876 0 001.1 38.2a64.306 64.306 0 003.563 8.485 14.077 14.077 0 002.851 4.179c2.452 2.229 5.97 2.685 9.208 3.37 3.238.683 6.767 2 8.147 5.01v9.79" stroke="#344154" stroke-miterlimit="10" stroke-linecap="round"/><path d="M22.138 35.79c4.122.985 9.122 1.59 12.4 6.806A20.777 20.777 0 0137.56 51.4v18.14M3.922 35.79L1.7 18.8a2.537 2.537 0 012.035-2.732v0a2.308 2.308 0 012.737 1.905L9.18 34.649l2.372 2.817m65.53-20.714l-2.6-.513a2.623 2.623 0 00-3.13 2.115c-.61 3.421-2 11.574-2.554 14.716l-1.961 2.514m4.595-17.988l-1.402-.28a2.627 2.627 0 00-3.136 2.122c-.758 4.299-1.329 8.267-1.984 11.756l-1.944 2.737m3.261-13.211l-1.14-.216a2.623 2.623 0 00-3.13 2.115c-.764 4.299-1.922 10.377-1.922 10.377m-4.988 12.759a13.062 13.062 0 0113.882-2.212c.408.198.836.35 1.278.45 3.107.616 3.694-2 4.606-3.99.816-1.768 2.537-3.153 4.47-4.083A1.876 1.876 0 0181.9 38.2a64.3 64.3 0 01-3.563 8.485 14.077 14.077 0 01-2.85 4.179c-2.453 2.229-5.97 2.685-9.209 3.37-3.238.683-6.767 2-8.147 5.01v9.79" stroke="#344154" stroke-miterlimit="10" stroke-linecap="round"/><path d="M60.845 35.79c-4.122.985-9.122 1.59-12.4 6.806a20.777 20.777 0 00-3.022 8.804v18.14m33.638-33.75l2.223-16.99a2.537 2.537 0 00-2.046-2.755v0A2.308 2.308 0 0076.5 17.95l-2.697 16.7-2.371 2.816" stroke="#344154" stroke-miterlimit="10" stroke-linecap="round"/><path d="M53.915 29l-7.15-.001a2.08 2.08 0 01-1.474-.616 2.112 2.112 0 01-.611-1.485v-7.205a.302.302 0 00-.298-.3h-4.766a.297.297 0 00-.298.3v7.204c0 .558-.22 1.092-.611 1.486a2.08 2.08 0 01-1.474.616L30.085 29a2.072 2.072 0 01-1.474-.615A2.105 2.105 0 0128 26.899V13.02a2.12 2.12 0 01.682-1.555L40.596.55a2.066 2.066 0 012.805 0l11.917 10.917A2.106 2.106 0 0156 13.021V26.9a2.11 2.11 0 01-.61 1.485 2.077 2.077 0 01-1.475.616zM39.616 18.192h4.766c.553 0 .636.072 1.027.466.39.394.313.478.313 1.035l.15 7.805a.298.298 0 00.298.3l8.34.001a.297.297 0 00.299-.3V12.571a.302.302 0 00-.098-.222L42.2.83a.296.296 0 00-.401 0L29.14 12.5a.302.302 0 00-.097.222l.149 14.778a.301.301 0 00.297.3h8.489a.297.297 0 00.298-.3v-7.806c0-.557-.078-.64.313-1.035.391-.393.474-.465 1.027-.466z" fill="#D60000"/></svg>
